X:48
T:Boy in the Basket, The
M:9/8
L:1/8
B:Thompson's Compleat Collection of 200 Favourite Country Dances, vol. 3 (London, 1773)
Z:Transcribed and edited by Flynn Titford-Mock, 2007
Z:abc's:AK/Fiddler's Companion
K:G
G>AG B>AG Bdg | G>AG B>cd AFD | G>AG B>AG Bdg | ece dBG AFD :|
|: g>ag gdB gdB | a>ba afd afd | g>ag gdB efg | ece dBG AFD :|

